img/twitter.svg

<svg width="25" height="20" viewBox="0 0 25 20" fill="none" xmlns="http://www.w3.org/2000/svg">
<path d="M7.7392 20C17.0259 20 22.1045 12.3061 22.1045 5.63472C22.1045 5.41612 22.1 5.19865 22.0899 4.98202C23.0757 4.26942 23.9327 3.37993 24.6086 2.36786C23.704 2.76978 22.7306 3.04043 21.7093 3.16246C22.7516 2.53747 23.5521 1.54834 23.9296 0.369453C22.9539 0.947983 21.8736 1.36838 20.7238 1.59509C19.8021 0.613796 18.49 0 17.0382 0C14.2497 0 11.9885 2.26122 11.9885 5.04835C11.9885 5.44467 12.033 5.8298 12.1192 6.19953C7.92337 5.98878 4.20253 3.97946 1.71264 0.924752C1.27853 1.67066 1.02859 2.53775 1.02859 3.46222C1.02859 5.21376 1.92004 6.76015 3.27554 7.66503C2.44735 7.63956 1.66926 7.41173 0.988846 7.03332C0.987727 7.05431 0.987727 7.07558 0.987727 7.09769C0.987727 9.54308 2.72835 11.5846 5.03827 12.0472C4.61424 12.1628 4.1681 12.225 3.7074 12.225C3.38217 12.225 3.0659 12.1925 2.7583 12.134C3.40093 14.1397 5.26498 15.5996 7.47498 15.6407C5.74667 16.9951 3.5697 17.802 1.20436 17.802C0.797123 17.802 0.395203 17.7788 0 17.7321C2.23435 19.164 4.88741 20 7.7392 20Z" fill="#8794BA"/>
</svg>

<svg width="25" height="20" fill="none" xmlns="http://www.w3.org/2000/svg"><path d="M7.74 20c9.286 0 14.365-7.694 14.365-14.365 0-.219-.005-.436-.015-.653a10.273 10.273 0 002.519-2.614 10.07 10.07 0 01-2.9.794A5.067 5.067 0 0023.93.37a10.12 10.12 0 01-3.205 1.226A5.05 5.05 0 0012.119 6.2 14.334 14.334 0 011.713.926a5.03 5.03 0 00-.684 2.537c0 1.752.891 3.298 2.247 4.203a5.013 5.013 0 01-2.287-.632l-.001.065a5.05 5.05 0 004.05 4.95 5.053 5.053 0 01-2.28.086 5.055 5.055 0 004.717 3.507 10.13 10.13 0 01-6.27 2.161c-.408 0-.81-.023-1.205-.07A14.293 14.293 0 007.74 20z" fill="#8794BA"/></svg>
